X:119
T:Chelmsford Assembly
C:John Johnson, 1758
M:6/8
L:1/8
S:Colin Hume's website,  colinhume.com  - chords can also be printed below the stave.
Q:3/8=120
K:G
P:A
|: "G"GBd "D7"cBA | "G"G2b "/"g2d | "G"(Bd)g- "/"gdB | "Am"cAG "D7"FDF |\
"G"GBd "D7"cBA | "Em"G2b "G/D"g2d | "A7/C#"efg "A7"Ee^c | "D"d3 "/"D3 :|
P:B
|: "G"(de)=f- "/"fdB | "G7"G2=f "C"e2c | "A"(e^f)g- "/"ge^c | "A7"A2g "D7"f2d |\
"G"b2g "Am"e=ce | "D7"a2f "G"dBd | "C"gec "D7"Aaf | "G"g3 "/"G3 :|

